icon-themes/breeze_svg/cmd/sc_formelcursor.svg

<svg xmlns="http://www.w3.org/2000/svg" viewBox="0 0 16 16">
     />
 <path 
     style="fill:#4d4d4d" 
     d="M 5.5 2 L 5.5 3 L 7.5 3 L 7.5 13 L 5.5 13 L 5.5 14 L 10.5 14 L 10.5 13 L 9.5 13 L 8.5 13 L 8.5 3 L 10.5 3 L 10.5 2 L 5.5 2 z "
     />
 </svg>

<svg viewBox="0 0 16 16" xmlns="http://www.w3.org/2000/svg">/&gt;<path d="m5.5 2v1h2v10h-2v1h5v-1h-1-1v-10h2v-1z" fill="#4d4d4d"/></svg>
